; generated by PrusaSlicer 2.3.2+arm64 on 2021-12-23 at 08:35:54 UTC

; 

; external perimeters extrusion width = 0.45mm
; perimeters extrusion width = 0.45mm
; infill extrusion width = 0.45mm
; solid infill extrusion width = 0.45mm
; top infill extrusion width = 0.40mm
; support material extrusion width = 0.35mm
; first layer extrusion width = 0.42mm

M73 P0 R98
M73 Q0 S99
M201 X1000 Y1000 Z200 E5000 ; sets maximum accelerations, mm/sec^2
M203 X200 Y200 Z12 E120 ; sets maximum feedrates, mm/sec
M204 P1250 R1250 T1250 ; sets acceleration (P, T) and retract acceleration (R), mm/sec^2
M205 X8.00 Y8.00 Z0.40 E4.50 ; sets the jerk limits, mm/sec
M205 S0 T0 ; sets the minimum extruding and travel feed rate, mm/sec
M107
;TYPE:Custom
M862.3 P "MK3S" ; printer model check
M862.1 P0.4 ; nozzle diameter check
M115 U3.10.0 ; tell printer latest fw version
G90 ; use absolute coordinates
M83 ; extruder relative mode
M104 S230 ; set extruder temp
M140 S85 ; set bed temp
M190 S85 ; wait for bed temp
M109 S230 ; wait for extruder temp
G28 W ; home all without mesh bed level
G80 ; mesh bed leveling
G1 Y-3.0 F1000.0 ; go outside print area
G92 E0.0
G1 X60.0 E9.0 F1000.0 ; intro line
G1 X100.0 E12.5 F1000.0 ; intro line
G92 E0.0
M221 S95

; Don't change E values below. Excessive value can damage the printer.
M907 E430 ; set extruder motor current
G21 ; set units to millimeters
G90 ; use absolute coordinates
M83 ; use relative distances for extrusion
M900 K0.08 ; Filament gcode LA 1.5
M900 K45 ; Filament gcode LA 1.0
;LAYER_CHANGE
;Z:0.2
;HEIGHT:0.2
;BEFORE_LAYER_CHANGE
G92 E0.0
;0.2


G1 E-1.00000 F2100.000
G1 Z0.200 F10800.000
;AFTER_LAYER_CHANGE
;0.2
G1 Z0.400
G1 X95.094 Y76.914
G1 Z0.200
G1 E1.00000 F2100.000
M204 S1000
;TYPE:Skirt
;WIDTH:0.42
G1 F1200.000
G1 X95.457 Y76.299 E0.02237
G1 X96.242 Y75.505 E0.03502
G1 X96.751 Y75.167 E0.01917
G1 X97.330 Y74.970 E0.01917
G1 X120.478 Y71.803 E0.73253
G1 X155.220 Y71.974 E1.08933
G1 X156.072 Y72.152 E0.02731
G1 X156.801 Y72.624 E0.02720
G1 X157.341 Y73.391 E0.02942
G1 X157.543 Y74.311 E0.02954
G1 X157.543 Y105.839 E0.98853
G1 X157.373 Y106.712 E0.02790
G1 X156.858 Y107.497 E0.02942
G1 X127.342 Y137.327 E1.31577
G1 X126.704 Y137.784 E0.02461
G1 X126.196 Y137.965 E0.01692
G1 X125.663 Y138.027 E0.01680
G1 X94.822 Y138.027 E0.96700
G1 X93.949 Y137.856 E0.02790
G1 X93.361 Y137.516 E0.02130
G1 X92.891 Y137.020 E0.02142
G1 X92.583 Y136.414 E0.02130
G1 X92.458 Y135.742 E0.02142
G1 X92.457 Y99.513 E1.13596
G1 X94.939 Y77.525 E0.69379
G1 X95.080 Y76.972 E0.01789
; printing object Body1 id:0 copy 0
;WIPE_START
G1 F8640.000
G1 X95.457 Y76.299 E-0.17807
G1 X96.242 Y75.505 E-0.25787
G1 X96.751 Y75.167 E-0.14121
G1 X97.330 Y74.970 E-0.14121
G1 X98.324 Y74.834 E-0.23164
;WIPE_END
G1 E-0.05000 F2100.000
G1 Z0.400 F10800.000
G1 X94.834 Y99.558
G1 Z0.200
G1 E1.00000 F2100.000
;TYPE:Support material
G1 F1200.000
G1 X94.834 Y135.650 E1.13163
M73 Q0 S98
G1 X95.588 Y135.650 E0.02365
G1 X95.588 Y99.728 E1.12631
G1 X96.342 Y99.728 E0.02365
G1 X96.342 Y135.650 E1.12631
G1 X97.096 Y135.650 E0.02365
G1 X97.096 Y99.728 E1.12631
G1 X97.286 Y99.728 E0.00597
G1 X97.286 Y102.871 E0.09856
G1 X97.529 Y103.114 E0.01074
G1 X97.850 Y103.114 E0.01008
G1 X97.850 Y135.650 E1.02015
G1 X98.604 Y135.650 E0.02365
G1 X98.604 Y103.114 E1.02015
G1 X99.359 Y103.114 E0.02365
G1 X99.359 Y135.650 E1.02015
G1 X100.113 Y135.650 E0.02365
G1 X100.113 Y103.114 E1.02015
G1 X100.867 Y103.114 E0.02365
G1 X100.867 Y135.650 E1.02015
G1 X101.621 Y135.650 E0.02365
G1 X101.621 Y103.114 E1.02015
G1 X102.375 Y103.114 E0.02365
G1 X102.375 Y135.650 E1.02015
G1 X103.129 Y135.650 E0.02365
G1 X103.129 Y103.114 E1.02015
G1 X103.884 Y103.114 E0.02365
G1 X103.884 Y135.650 E1.02015
G1 X104.638 Y135.650 E0.02365
G1 X104.638 Y103.114 E1.02015
G1 X104.894 Y103.114 E0.00804
G1 X104.894 Y125.106 E0.68955
G1 X105.392 Y125.106 E0.01561
G1 X105.392 Y135.650 E0.33060
G1 X106.146 Y135.650 E0.02365
G1 X106.146 Y125.106 E0.33060
G1 X106.900 Y125.106 E0.02365
G1 X106.900 Y135.650 E0.33060
G1 X107.654 Y135.650 E0.02365
G1 X107.654 Y125.106 E0.33060
G1 X108.409 Y125.106 E0.02365
G1 X108.408 Y135.650 E0.33060
G1 X109.163 Y135.650 E0.02365
G1 X109.163 Y125.106 E0.33060
G1 X109.917 Y125.106 E0.02365
G1 X109.917 Y135.650 E0.33060
G1 X110.671 Y135.650 E0.02365
G1 X110.671 Y125.106 E0.33060
G1 X111.425 Y125.106 E0.02365
G1 X111.425 Y135.650 E0.33060
G1 X112.179 Y135.650 E0.02365
G1 X112.179 Y125.106 E0.33060
G1 X112.933 Y125.106 E0.02365
G1 X112.933 Y135.650 E0.33060
G1 X113.688 Y135.650 E0.02365
G1 X113.688 Y125.106 E0.33060
G1 X114.442 Y125.106 E0.02365
G1 X114.442 Y135.650 E0.33060
G1 X115.196 Y135.650 E0.02365
G1 X115.196 Y103.114 E1.02015
G1 X115.950 Y103.114 E0.02365
G1 X115.950 Y135.650 E1.02015
M73 P0 R97
G1 X116.704 Y135.650 E0.02365
G1 X116.704 Y103.114 E1.02015
G1 X117.458 Y103.114 E0.02365
G1 X117.458 Y135.650 E1.02015
M73 P1 R97
M73 Q1 S98
G1 X118.213 Y135.650 E0.02365
G1 X118.213 Y103.114 E1.02015
G1 X118.967 Y103.114 E0.02365
G1 X118.967 Y135.650 E1.02015
G1 X119.721 Y135.650 E0.02365
G1 X119.721 Y103.114 E1.02015
G1 X120.475 Y103.114 E0.02365
G1 X120.475 Y135.650 E1.02015
G1 X121.229 Y135.650 E0.02365
G1 X121.229 Y103.114 E1.02015
G1 X121.983 Y103.114 E0.02365
G1 X121.983 Y135.650 E1.02015
G1 X122.738 Y135.650 E0.02365
G1 X122.738 Y103.114 E1.02015
G1 X122.871 Y103.114 E0.00419
G1 X123.114 Y102.871 E0.01074
G1 X123.114 Y95.114 E0.24323
G1 X123.492 Y95.114 E0.01186
G1 X123.492 Y135.650 E1.27098
G1 X124.246 Y135.650 E0.02365
G1 X124.246 Y95.114 E1.27098
G1 X125.000 Y95.114 E0.02365
G1 X125.000 Y135.650 E1.27098
G1 X125.658 Y135.650 E0.02063
G1 X125.658 Y105.658 E0.94038
G1 X125.754 Y105.658 E0.00302
G1 X125.754 Y95.114 E0.33060
G1 X126.508 Y95.114 E0.02365
G1 X126.508 Y105.658 E0.33060
M73 Q1 S97
G1 X127.262 Y105.658 E0.02365
G1 X127.262 Y95.114 E0.33060
G1 X128.017 Y95.114 E0.02365
G1 X128.017 Y105.658 E0.33060
G1 X128.771 Y105.658 E0.02365
G1 X128.771 Y95.114 E0.33060
G1 X129.525 Y95.114 E0.02365
G1 X129.525 Y105.658 E0.33060
G1 X130.279 Y105.658 E0.02365
G1 X130.279 Y95.114 E0.33060
G1 X131.033 Y95.114 E0.02365
G1 X131.033 Y105.658 E0.33060
G1 X131.787 Y105.658 E0.02365
G1 X131.787 Y95.114 E0.33060
G1 X132.542 Y95.114 E0.02365
G1 X132.542 Y105.658 E0.33060
G1 X133.296 Y105.658 E0.02365
G1 X133.296 Y95.114 E0.33060
G1 X134.050 Y95.114 E0.02365
G1 X134.050 Y105.658 E0.33060
G1 X134.804 Y105.658 E0.02365
G1 X134.804 Y95.114 E0.33060
G1 X135.558 Y95.114 E0.02365
G1 X135.558 Y105.658 E0.33060
G1 X136.312 Y105.658 E0.02365
G1 X136.312 Y95.114 E0.33060
G1 X137.067 Y95.114 E0.02365
G1 X137.067 Y105.658 E0.33060
G1 X137.821 Y105.658 E0.02365
G1 X137.821 Y95.114 E0.33060
G1 X138.575 Y95.114 E0.02365
G1 X138.575 Y105.658 E0.33060
G1 X139.329 Y105.658 E0.02365
G1 X139.329 Y95.114 E0.33060
G1 X140.083 Y95.114 E0.02365
G1 X140.083 Y105.658 E0.33060
G1 X140.837 Y105.658 E0.02365
G1 X140.837 Y95.114 E0.33060
G1 X141.591 Y95.114 E0.02365
G1 X141.591 Y105.658 E0.33060
G1 X142.346 Y105.658 E0.02365
G1 X142.346 Y95.114 E0.33060
G1 X143.100 Y95.114 E0.02365
G1 X143.100 Y105.658 E0.33060
G1 X143.854 Y105.658 E0.02365
G1 X143.854 Y95.114 E0.33060
G1 X144.608 Y95.114 E0.02365
G1 X144.608 Y105.658 E0.33060
G1 X145.362 Y105.658 E0.02365
G1 X145.362 Y74.350 E0.98163
G1 X146.116 Y74.350 E0.02365
G1 X146.116 Y105.658 E0.98163
G1 X146.871 Y105.658 E0.02365
G1 X146.871 Y74.350 E0.98163
G1 X147.625 Y74.350 E0.02365
G1 X147.625 Y105.658 E0.98163
G1 X148.379 Y105.658 E0.02365
G1 X148.379 Y74.350 E0.98163
G1 X149.133 Y74.350 E0.02365
G1 X149.133 Y105.658 E0.98163
G1 X149.887 Y105.658 E0.02365
G1 X149.887 Y74.350 E0.98163
G1 X150.641 Y74.350 E0.02365
G1 X150.641 Y105.658 E0.98163
G1 X151.396 Y105.658 E0.02365
G1 X151.396 Y74.350 E0.98163
G1 X152.150 Y74.350 E0.02365
G1 X152.150 Y105.658 E0.98163
G1 X152.904 Y105.658 E0.02365
G1 X152.904 Y74.350 E0.98163
G1 X153.658 Y74.350 E0.02365
G1 X153.658 Y105.658 E0.98163
G1 X154.412 Y105.658 E0.02365
G1 X154.412 Y74.350 E0.98163
M73 P1 R96
G1 X155.166 Y74.350 E0.02365
G1 X155.166 Y105.828 E0.98695
;WIPE_START
G1 F8640.000
G1 X155.166 Y101.713 E-0.95000
;WIPE_END
G1 E-0.05000 F2100.000
G1 Z0.400 F10800.000
G1 X144.608 Y85.064
G1 Z0.200
G1 E1.00000 F2100.000
G1 F1200.000
G1 X144.608 Y74.350 E0.33592
G1 X143.854 Y74.350 E0.02365
G1 X143.854 Y84.894 E0.33060
M73 P2 R96
M73 Q2 S97
G1 X143.100 Y84.894 E0.02365
G1 X143.100 Y74.350 E0.33060
G1 X142.346 Y74.350 E0.02365
G1 X142.346 Y84.894 E0.33060
G1 X141.591 Y84.894 E0.02365
G1 X141.592 Y74.350 E0.33060
G1 X140.837 Y74.350 E0.02365
G1 X140.837 Y84.894 E0.33060
G1 X140.083 Y84.894 E0.02365
G1 X140.083 Y74.350 E0.33060
G1 X139.329 Y74.350 E0.02365
G1 X139.329 Y84.894 E0.33060
G1 X138.575 Y84.894 E0.02365
G1 X138.575 Y74.350 E0.33060
G1 X137.821 Y74.350 E0.02365
G1 X137.821 Y84.894 E0.33060
G1 X137.067 Y84.894 E0.02365
G1 X137.067 Y74.350 E0.33060
G1 X136.312 Y74.350 E0.02365
G1 X136.312 Y84.894 E0.33060
G1 X135.558 Y84.894 E0.02365
G1 X135.558 Y74.350 E0.33060
G1 X134.804 Y74.350 E0.02365
G1 X134.804 Y84.894 E0.33060
G1 X134.050 Y84.894 E0.02365
G1 X134.050 Y74.350 E0.33060
G1 X133.296 Y74.350 E0.02365
G1 X133.296 Y84.894 E0.33060
G1 X132.542 Y84.894 E0.02365
G1 X132.542 Y74.350 E0.33060
G1 X131.787 Y74.350 E0.02365
G1 X131.787 Y84.894 E0.33060
G1 X131.033 Y84.894 E0.02365
G1 X131.033 Y74.350 E0.33060
G1 X130.279 Y74.350 E0.02365
G1 X130.279 Y84.894 E0.33060
G1 X129.525 Y84.894 E0.02365
G1 X129.525 Y74.350 E0.33060
G1 X128.771 Y74.350 E0.02365
G1 X128.771 Y84.894 E0.33060
G1 X128.017 Y84.894 E0.02365
G1 X128.017 Y74.350 E0.33060
G1 X127.262 Y74.350 E0.02365
G1 X127.262 Y84.894 E0.33060
G1 X126.508 Y84.894 E0.02365
G1 X126.508 Y74.350 E0.33060
G1 X125.754 Y74.350 E0.02365
G1 X125.754 Y84.894 E0.33060
G1 X125.000 Y84.894 E0.02365
G1 X125.000 Y74.350 E0.33060
G1 X124.246 Y74.350 E0.02365
G1 X124.246 Y84.894 E0.33060
G1 X123.492 Y84.894 E0.02365
G1 X123.492 Y74.350 E0.33060
G1 X122.738 Y74.350 E0.02365
G1 X122.738 Y77.286 E0.09207
G1 X121.983 Y77.286 E0.02365
G1 X121.983 Y74.350 E0.09207
G1 X121.229 Y74.350 E0.02365
G1 X121.229 Y77.286 E0.09207
G1 X120.475 Y77.286 E0.02365
G1 X120.475 Y74.180 E0.09739
;WIPE_START
G1 F8640.000
G1 X120.475 Y77.286 E-0.71719
G1 X121.229 Y77.286 E-0.17414
G1 X121.229 Y77.032 E-0.05867
;WIPE_END
G1 E-0.05000 F2100.000
G1 Z0.400 F10800.000
G1 X121.913 Y78.487
G1 Z0.200
G1 E1.00000 F2100.000
;TYPE:Perimeter
G1 F1200.000
G1 X121.913 Y101.913 E0.73450
G1 X98.487 Y101.913 E0.73450
G1 X98.487 Y78.487 E0.73450
G1 X121.853 Y78.487 E0.73262
G1 X122.290 Y78.110 F10800.000
;TYPE:External perimeter
G1 F1200.000
G1 X122.290 Y102.290 E0.75815
M73 Q2 S96
G1 X98.110 Y102.290 E0.75815
G1 X98.110 Y78.110 E0.75815
G1 X122.230 Y78.110 E0.75627
G1 X122.186 Y78.496 F10800.000
;WIPE_START
G1 F8640.000
G1 X122.240 Y82.224 E-0.95000
;WIPE_END
G1 E-0.05000 F2100.000
G1 Z0.400 F10800.000
G1 X121.036 Y78.600
G1 Z0.200
G1 E1.00000 F2100.000
;TYPE:Solid infill
;WIDTH:0.42065
G1 F1200.000
G1 X121.630 Y79.194 E0.02638
G1 X121.630 Y79.728 E0.01678
G1 X120.672 Y78.770 E0.04257
G1 X120.137 Y78.770 E0.01678
G1 X121.630 Y80.263 E0.06630
G1 X121.630 Y80.797 E0.01678
G1 X119.603 Y78.770 E0.09003
G1 X119.069 Y78.770 E0.01678
G1 X121.630 Y81.331 E0.11376
G1 X121.630 Y81.865 E0.01678
G1 X118.535 Y78.770 E0.13748
G1 X118.001 Y78.770 E0.01678
G1 X121.630 Y82.399 E0.16121
G1 X121.630 Y82.933 E0.01678
G1 X117.467 Y78.770 E0.18494
G1 X116.932 Y78.770 E0.01678
G1 X121.630 Y83.468 E0.20867
G1 X121.630 Y84.002 E0.01678
G1 X116.398 Y78.770 E0.23240
G1 X115.864 Y78.770 E0.01678
G1 X121.630 Y84.536 E0.25612
G1 X121.630 Y85.070 E0.01678
G1 X115.330 Y78.770 E0.27985
G1 X114.796 Y78.770 E0.01678
G1 X121.630 Y85.604 E0.30358
G1 X121.630 Y86.139 E0.01678
G1 X114.261 Y78.770 E0.32731
G1 X113.727 Y78.770 E0.01678
G1 X121.630 Y86.673 E0.35103
G1 X121.630 Y87.207 E0.01678
G1 X113.193 Y78.770 E0.37476
G1 X112.659 Y78.770 E0.01678
G1 X121.630 Y87.741 E0.39849
G1 X121.630 Y88.275 E0.01678
G1 X112.125 Y78.770 E0.42222
G1 X111.590 Y78.770 E0.01678
G1 X121.630 Y88.810 E0.44595
G1 X121.630 Y89.344 E0.01678
G1 X111.056 Y78.770 E0.46967
G1 X110.522 Y78.770 E0.01678
G1 X121.630 Y89.878 E0.49340
G1 X121.630 Y90.412 E0.01678
G1 X109.988 Y78.770 E0.51713
G1 X109.454 Y78.770 E0.01678
G1 X121.630 Y90.946 E0.54086
G1 X121.630 Y91.481 E0.01678
G1 X108.919 Y78.770 E0.56458
G1 X108.385 Y78.770 E0.01678
G1 X121.630 Y92.015 E0.58831
G1 X121.630 Y92.549 E0.01678
G1 X107.851 Y78.770 E0.61204
G1 X107.317 Y78.770 E0.01678
G1 X121.630 Y93.083 E0.63577
G1 X121.630 Y93.617 E0.01678
G1 X106.783 Y78.770 E0.65950
G1 X106.248 Y78.770 E0.01678
G1 X121.630 Y94.152 E0.68322
G1 X121.630 Y94.686 E0.01678
G1 X105.714 Y78.770 E0.70695
G1 X105.180 Y78.770 E0.01678
G1 X121.630 Y95.220 E0.73068
G1 X121.630 Y95.754 E0.01678
G1 X104.646 Y78.770 E0.75441
G1 X104.112 Y78.770 E0.01678
G1 X121.630 Y96.288 E0.77813
G1 X121.630 Y96.822 E0.01678
G1 X103.578 Y78.770 E0.80186
G1 X103.043 Y78.770 E0.01678
G1 X121.630 Y97.357 E0.82559
G1 X121.630 Y97.891 E0.01678
G1 X102.509 Y78.770 E0.84932
G1 X101.975 Y78.770 E0.01678
G1 X121.630 Y98.425 E0.87305
G1 X121.630 Y98.959 E0.01678
G1 X101.441 Y78.770 E0.89677
G1 X100.907 Y78.770 E0.01678
G1 X121.630 Y99.493 E0.92050
M73 P2 R95
G1 X121.630 Y100.028 E0.01678
G1 X100.372 Y78.770 E0.94423
M73 P3 R95
G1 X99.838 Y78.770 E0.01678
G1 X121.630 Y100.562 E0.96796
M73 Q3 S96
G1 X121.630 Y101.096 E0.01678
G1 X99.304 Y78.770 E0.99168
G1 X98.770 Y78.770 E0.01678
G1 X121.630 Y101.630 E1.01541
G1 X121.096 Y101.630 E0.01678
G1 X98.770 Y79.304 E0.99168
G1 X98.770 Y79.838 E0.01678
G1 X120.562 Y101.630 E0.96795
G1 X120.027 Y101.630 E0.01678
G1 X98.770 Y80.372 E0.94422
G1 X98.770 Y80.907 E0.01678
G1 X119.493 Y101.630 E0.92050
G1 X118.959 Y101.630 E0.01678
G1 X98.770 Y81.441 E0.89677
G1 X98.770 Y81.975 E0.01678
G1 X118.425 Y101.630 E0.87304
G1 X117.891 Y101.630 E0.01678
G1 X98.770 Y82.509 E0.84931
G1 X98.770 Y83.043 E0.01678
G1 X117.357 Y101.630 E0.82559
G1 X116.822 Y101.630 E0.01678
G1 X98.770 Y83.578 E0.80186
G1 X98.770 Y84.112 E0.01678
G1 X116.288 Y101.630 E0.77813
G1 X115.754 Y101.630 E0.01678
G1 X98.770 Y84.646 E0.75440
G1 X98.770 Y85.180 E0.01678
G1 X115.220 Y101.630 E0.73067
G1 X114.686 Y101.630 E0.01678
G1 X98.770 Y85.714 E0.70695
M73 Q3 S95
G1 X98.770 Y86.249 E0.01678
G1 X114.151 Y101.630 E0.68322
G1 X113.617 Y101.630 E0.01678
G1 X98.770 Y86.783 E0.65949
G1 X98.770 Y87.317 E0.01678
G1 X113.083 Y101.630 E0.63576
G1 X112.549 Y101.630 E0.01678
G1 X98.770 Y87.851 E0.61204
G1 X98.770 Y88.385 E0.01678
G1 X112.015 Y101.630 E0.58831
G1 X111.480 Y101.630 E0.01678
G1 X98.770 Y88.920 E0.56458
G1 X98.770 Y89.454 E0.01678
G1 X110.946 Y101.630 E0.54085
G1 X110.412 Y101.630 E0.01678
G1 X98.770 Y89.988 E0.51712
G1 X98.770 Y90.522 E0.01678
G1 X109.878 Y101.630 E0.49340
G1 X109.344 Y101.630 E0.01678
G1 X98.770 Y91.056 E0.46967
G1 X98.770 Y91.591 E0.01678
G1 X108.809 Y101.630 E0.44594
G1 X108.275 Y101.630 E0.01678
G1 X98.770 Y92.125 E0.42221
G1 X98.770 Y92.659 E0.01678
G1 X107.741 Y101.630 E0.39849
G1 X107.207 Y101.630 E0.01678
G1 X98.770 Y93.193 E0.37476
G1 X98.770 Y93.727 E0.01678
G1 X106.673 Y101.630 E0.35103
G1 X106.139 Y101.630 E0.01678
G1 X98.770 Y94.261 E0.32730
G1 X98.770 Y94.796 E0.01678
G1 X105.604 Y101.630 E0.30357
G1 X105.070 Y101.630 E0.01678
G1 X98.770 Y95.330 E0.27985
G1 X98.770 Y95.864 E0.01678
G1 X104.536 Y101.630 E0.25612
G1 X104.002 Y101.630 E0.01678
G1 X98.770 Y96.398 E0.23239
G1 X98.770 Y96.932 E0.01678
G1 X103.468 Y101.630 E0.20866
G1 X102.933 Y101.630 E0.01678
G1 X98.770 Y97.467 E0.18494
G1 X98.770 Y98.001 E0.01678
G1 X102.399 Y101.630 E0.16121
G1 X101.865 Y101.630 E0.01678
G1 X98.770 Y98.535 E0.13748
G1 X98.770 Y99.069 E0.01678
G1 X101.331 Y101.630 E0.11375
G1 X100.797 Y101.630 E0.01678
G1 X98.770 Y99.603 E0.09002
G1 X98.770 Y100.138 E0.01678
G1 X100.262 Y101.630 E0.06630
G1 X99.728 Y101.630 E0.01678
G1 X98.770 Y100.672 E0.04257
G1 X98.770 Y101.206 E0.01678
G1 X99.364 Y101.800 E0.02638
; stop printing object Body1 id:0 copy 0
;LAYER_CHANGE
;Z:0.4
;HEIGHT:0.2
;BEFORE_LAYER_CHANGE
G92 E0.0
;0.4


;WIPE_START
G1 F8640.000
G1 X98.770 Y101.206 E-0.19392
